v1/Arbeidsfiler/HOE_0007.xmp
<x:xmpmeta xmlns:x="adobe:ns:meta/" x:xmptk="Adobe XMP Core 4.2-c020 1.124078, Tue Sep 11 2007 23:21:40        ">
 <rdf:RDF xmlns:rdf="http://www.w3.org/1999/02/22-rdf-syntax-ns#">
  <rdf:Description rdf:about=""
    xmlns:tiff="http://ns.adobe.com/tiff/1.0/">
   <tiff:Make>NIKON CORPORATION</tiff:Make>
   <tiff:Model>NIKON D200</tiff:Model>
   <tiff:Orientation>8</tiff:Orientation>
  </rdf:Description>
  <rdf:Description rdf:about=""
    xmlns:exif="http://ns.adobe.com/exif/1.0/">
   <exif:ExifVersion>0221</exif:ExifVersion>
   <exif:ExposureTime>1/200</exif:ExposureTime>
   <exif:ShutterSpeedValue>7643856/1000000</exif:ShutterSpeedValue>
   <exif:FNumber>56/10</exif:FNumber>
   <exif:ApertureValue>4970854/1000000</exif:ApertureValue>
   <exif:ExposureProgram>1</exif:ExposureProgram>
   <exif:ISOSpeedRatings>
    <rdf:Seq>
     <rdf:li>200</rdf:li>
    </rdf:Seq>
   </exif:ISOSpeedRatings>
   <exif:DateTimeOriginal>2011-08-30T11:08:06.41+02:00</exif:DateTimeOriginal>
   <exif:DateTimeDigitized>2011-08-30T11:08:06.41+02:00</exif:DateTimeDigitized>
   <exif:ExposureBiasValue>0/6</exif:ExposureBiasValue>
   <exif:MaxApertureValue>10/10</exif:MaxApertureValue>
   <exif:SubjectDistance>79/100</exif:SubjectDistance>
   <exif:MeteringMode>3</exif:MeteringMode>
   <exif:LightSource>4</exif:LightSource>
   <exif:Flash rdf:parseType="Resource">
    <exif:Fired>False</exif:Fired>
    <exif:Return>0</exif:Return>
    <exif:Mode>0</exif:Mode>
    <exif:Function>False</exif:Function>
    <exif:RedEyeMode>False</exif:RedEyeMode>
   </exif:Flash>
   <exif:FocalLength>500/10</exif:FocalLength>
   <exif:SensingMethod>2</exif:SensingMethod>
   <exif:FileSource>3</exif:FileSource>
   <exif:SceneType>1</exif:SceneType>
   <exif:FocalLengthIn35mmFilm>75</exif:FocalLengthIn35mmFilm>
   <exif:CustomRendered>0</exif:CustomRendered>
   <exif:ExposureMode>1</exif:ExposureMode>
   <exif:WhiteBalance>1</exif:WhiteBalance>
   <exif:SceneCaptureType>0</exif:SceneCaptureType>
   <exif:GainControl>0</exif:GainControl>
   <exif:Contrast>1</exif:Contrast>
   <exif:Saturation>1</exif:Saturation>
   <exif:Sharpness>1</exif:Sharpness>
   <exif:SubjectDistanceRange>0</exif:SubjectDistanceRange>
   <exif:DigitalZoomRatio>1/1</exif:DigitalZoomRatio>
  </rdf:Description>
  <rdf:Description rdf:about=""
    xmlns:xap="http://ns.adobe.com/xap/1.0/">
   <xap:ModifyDate>2011-08-30T11:08:06.41+02:00</xap:ModifyDate>
   <xap:CreateDate>2011-08-30T11:08:06.41+02:00</xap:CreateDate>
   <xap:CreatorTool>Ver.2.00</xap:CreatorTool>
   <xap:Rating>0</xap:Rating>
  </rdf:Description>
  <rdf:Description rdf:about=""
    xmlns:aux="http://ns.adobe.com/exif/1.0/aux/">
   <aux:LensInfo>500/10 500/10 14/10 14/10</aux:LensInfo>
   <aux:Lens>50.0 mm f/1.4</aux:Lens>
   <aux:LensID>67</aux:LensID>
   <aux:ImageNumber>14145</aux:ImageNumber>
  </rdf:Description>
  <rdf:Description rdf:about=""
    xmlns:crs="http://ns.adobe.com/camera-raw-settings/1.0/">
   <crs:RawFileName>HOE_0007.NEF</crs:RawFileName>
   <crs:Version>6.0</crs:Version>
   <crs:ProcessVersion>5.7</crs:ProcessVersion>
   <crs:WhiteBalance>Custom</crs:WhiteBalance>
   <crs:Temperature>5400</crs:Temperature>
   <crs:Tint>+6</crs:Tint>
   <crs:Exposure>+0.75</crs:Exposure>
   <crs:Shadows>5</crs:Shadows>
   <crs:Brightness>+50</crs:Brightness>
   <crs:Contrast>+25</crs:Contrast>
   <crs:Saturation>0</crs:Saturation>
   <crs:Sharpness>25</crs:Sharpness>
   <crs:LuminanceSmoothing>0</crs:LuminanceSmoothing>
   <crs:ColorNoiseReduction>25</crs:ColorNoiseReduction>
   <crs:ChromaticAberrationR>0</crs:ChromaticAberrationR>
   <crs:ChromaticAberrationB>0</crs:ChromaticAberrationB>
   <crs:VignetteAmount>0</crs:VignetteAmount>
   <crs:ShadowTint>0</crs:ShadowTint>
   <crs:RedHue>0</crs:RedHue>
   <crs:RedSaturation>0</crs:RedSaturation>
   <crs:GreenHue>0</crs:GreenHue>
   <crs:GreenSaturation>0</crs:GreenSaturation>
   <crs:BlueHue>0</crs:BlueHue>
   <crs:BlueSaturation>0</crs:BlueSaturation>
   <crs:FillLight>0</crs:FillLight>
   <crs:Vibrance>0</crs:Vibrance>
   <crs:HighlightRecovery>0</crs:HighlightRecovery>
   <crs:Clarity>0</crs:Clarity>
   <crs:Defringe>0</crs:Defringe>
   <crs:HueAdjustmentRed>0</crs:HueAdjustmentRed>
   <crs:HueAdjustmentOrange>0</crs:HueAdjustmentOrange>
   <crs:HueAdjustmentYellow>0</crs:HueAdjustmentYellow>
   <crs:HueAdjustmentGreen>0</crs:HueAdjustmentGreen>
   <crs:HueAdjustmentAqua>0</crs:HueAdjustmentAqua>
   <crs:HueAdjustmentBlue>0</crs:HueAdjustmentBlue>
   <crs:HueAdjustmentPurple>0</crs:HueAdjustmentPurple>
   <crs:HueAdjustmentMagenta>0</crs:HueAdjustmentMagenta>
   <crs:SaturationAdjustmentRed>0</crs:SaturationAdjustmentRed>
   <crs:SaturationAdjustmentOrange>0</crs:SaturationAdjustmentOrange>
   <crs:SaturationAdjustmentYellow>0</crs:SaturationAdjustmentYellow>
   <crs:SaturationAdjustmentGreen>0</crs:SaturationAdjustmentGreen>
   <crs:SaturationAdjustmentAqua>0</crs:SaturationAdjustmentAqua>
   <crs:SaturationAdjustmentBlue>0</crs:SaturationAdjustmentBlue>
   <crs:SaturationAdjustmentPurple>0</crs:SaturationAdjustmentPurple>
   <crs:SaturationAdjustmentMagenta>0</crs:SaturationAdjustmentMagenta>
   <crs:LuminanceAdjustmentRed>0</crs:LuminanceAdjustmentRed>
   <crs:LuminanceAdjustmentOrange>0</crs:LuminanceAdjustmentOrange>
   <crs:LuminanceAdjustmentYellow>0</crs:LuminanceAdjustmentYellow>
   <crs:LuminanceAdjustmentGreen>0</crs:LuminanceAdjustmentGreen>
   <crs:LuminanceAdjustmentAqua>0</crs:LuminanceAdjustmentAqua>
   <crs:LuminanceAdjustmentBlue>0</crs:LuminanceAdjustmentBlue>
   <crs:LuminanceAdjustmentPurple>0</crs:LuminanceAdjustmentPurple>
   <crs:LuminanceAdjustmentMagenta>0</crs:LuminanceAdjustmentMagenta>
   <crs:SplitToningShadowHue>0</crs:SplitToningShadowHue>
   <crs:SplitToningShadowSaturation>0</crs:SplitToningShadowSaturation>
   <crs:SplitToningHighlightHue>0</crs:SplitToningHighlightHue>
   <crs:SplitToningHighlightSaturation>0</crs:SplitToningHighlightSaturation>
   <crs:SplitToningBalance>0</crs:SplitToningBalance>
   <crs:ParametricShadows>0</crs:ParametricShadows>
   <crs:ParametricDarks>0</crs:ParametricDarks>
   <crs:ParametricLights>0</crs:ParametricLights>
   <crs:ParametricHighlights>0</crs:ParametricHighlights>
   <crs:ParametricShadowSplit>25</crs:ParametricShadowSplit>
   <crs:ParametricMidtoneSplit>50</crs:ParametricMidtoneSplit>
   <crs:ParametricHighlightSplit>75</crs:ParametricHighlightSplit>
   <crs:SharpenRadius>+1.0</crs:SharpenRadius>
   <crs:SharpenDetail>25</crs:SharpenDetail>
   <crs:SharpenEdgeMasking>0</crs:SharpenEdgeMasking>
   <crs:PostCropVignetteAmount>0</crs:PostCropVignetteAmount>
   <crs:GrainAmount>0</crs:GrainAmount>
   <crs:ColorNoiseReductionDetail>50</crs:ColorNoiseReductionDetail>
   <crs:ConvertToGrayscale>False</crs:ConvertToGrayscale>
   <crs:ToneCurveName>Medium Contrast</crs:ToneCurveName>
   <crs:ToneCurve>
    <rdf:Seq>
     <rdf:li>0, 0</rdf:li>
     <rdf:li>32, 22</rdf:li>
     <rdf:li>64, 56</rdf:li>
     <rdf:li>128, 128</rdf:li>
     <rdf:li>192, 196</rdf:li>
     <rdf:li>255, 255</rdf:li>
    </rdf:Seq>
   </crs:ToneCurve>
   <crs:CameraProfile>Adobe Standard</crs:CameraProfile>
   <crs:CameraProfileDigest>EEAE3DBFE03C629F248FDD41FFC507B5</crs:CameraProfileDigest>
   <crs:HasSettings>True</crs:HasSettings>
   <crs:HasCrop>False</crs:HasCrop>
   <crs:AlreadyApplied>False</crs:AlreadyApplied>
  </rdf:Description>
  <rdf:Description rdf:about=""
    xmlns:photoshop="http://ns.adobe.com/photoshop/1.0/">
   <photoshop:SidecarForExtension>NEF</photoshop:SidecarForExtension>
  </rdf:Description>
 </rdf:RDF>
</x:xmpmeta>
